X: 27873
T: Mount Pleasant
R: waltz
M: 3/4
K: Aminor
|:"C" G,2 G2 FE|"G" D2E2F2|"Am"E2 D2 C2|"G"G,6|"F" A,2 C2 A,2|"C" G,2 C2 D2|E4 FG|"G" D6|
"Dm"A,4 D^C|D2 F2 A2|"G"B2 G2 ^F2|"G7"G4 B2|"C" c4 GE|"Em" B2 G2 E2|"Dm7" A2 F2 D2|1 "G"G6:|2 "G7"G2^F2G2||
|:"Am" A4 Bc|"G" d2 c2 d2|"Am"e2 dc BA|"E7"B2 E2 B2|"Am"c4 A^G|"F"A2B2c2|"G" d2 B2 G2|"E7"e6|
"Am"a2^g2a2|e2f2g2|"F" f2 ed cd|"Am"e2 A4|"F" c2B2c2|"Am"A2 E2 E2|"E7"d2c2B2|"Am" A6:|

